**kern	**kern	**dynam
*part1	*part1	*part1
*staff2	*staff1	*
*I"Piano	*	*
*clefF4	*clefG2	*
*k[f#]	*k[f#]	*
=1	=1	=1
4G 4c#X 4e	16r	.
.	(16aLL	.
.	16aa	.
.	16eeJJ)	.
4G 4cn 4d	16r	.
.	(16f#LL	.
.	16aa	.
.	16ddJJ)	.
=	=	=
4B 4d	4g 4gg	.
(4B-X 4c#X	(8gL	.
.	16qqa/LL	.
.	16qqg/JJ	.
.	16f#L	.
.	16gJJ)	.
=	=	=
*	*^	*
4A 4d	4f# 4ccn	4ryy	.
4G 4cn 4e	(8ccL	4g	<
.	16qqdd/LL	.	.
!	!LO:TX:a:t=ritard.	!	!
.	16qqcc/JJ	.	.
.	16bL	.	.
.	16ccJJ)	.	.
=	=	=	=
4F# 4A 4d 4a	4cc 4aa	4ryy	.
4E) 4G 4c 4g	(8aaL	4cc	.
.	16qqbb/LL	.	.
.	16qqaa/JJ	.	.
.	16gg#XL	.	.
.	16aaJJ)	.	[
=	=	=	=
[8qqD/L	.	.	.
[8qqF#/	.	.	.
[8qqc/	.	.	.
[8qqf#/J	.	.	.
2D_ 2F#_ 2c_ 2f#_ [2a	(8cccL	[2cc	.
.	8aa	.	.
.	8ff#	.	.
.	8ddJ	.	.
=	=	=	=
2D] 2F#] 2c] 2f#] 2a]	8ff#L	2cc]	>
.	8ee	.	.
.	8dd	.	.
.	8ccJ)	.	.
*	*v	*v	*
=	=	=
(4G 4d [4g	16r	] p
.	(16bLL	.
.	16ddd	.
.	16ggJJ)	.
4A 4c#X 4g]	16r	.
.	(16aLL	.
.	16aa	.
.	16eeJJ)	.
=	=	=
*-	*-	*-
!!!system-decoration: {(s1,s2)}
